icons/Business/bookmark-3-fill.svg

<svg viewBox="0 0 24 24" xmlns="http://www.w3.org/2000/svg"><path d="M4 2H20C20.5523 2 21 2.44772 21 3V22.2763C21 22.5525 20.7761 22.7764 20.5 22.7764C20.4298 22.7764 20.3604 22.7615 20.2963 22.7329L12 19.0313L3.70373 22.7329C3.45155 22.8455 3.15591 22.7322 3.04339 22.4801C3.01478 22.4159 3 22.3465 3 22.2763V3C3 2.44772 3.44772 2 4 2ZM12 13.5L14.9389 15.0451L14.3776 11.7725L16.7553 9.45492L13.4695 8.97746L12 6L10.5305 8.97746L7.24472 9.45492L9.62236 11.7725L9.06107 15.0451L12 13.5Z"/></svg>

<svg xmlns="http://www.w3.org/2000/svg" viewBox="0 0 24 24">
    <g>
        <path fill="none" d="M0 0h24v24H0z"/>
        <path d="M4 2h16a1 1 0 0 1 1 1v19.276a.5.5 0 0 1-.704.457L12 19.03l-8.296 3.702A.5.5 0 0 1 3 22.276V3a1 1 0 0 1 1-1zm8 11.5l2.939 1.545-.561-3.272 2.377-2.318-3.286-.478L12 6l-1.47 2.977-3.285.478 2.377 2.318-.56 3.272L12 13.5z"/>
    </g>
</svg>
